X:1
T:The Gosford Beach - Luxton
C:Taken down from Roger Luxton by H.Fl.S.
%%VWML:SBG-1-1-279-0
F:http://www.vwml.org/record/SBG/1/1/279
Z:Original Sibleius Transcription by Martin and Shan Graebe
L:1/8
M:4/4
I:linebreak $
K:F
FA | c2 d2 c2 A2 | F3 G F2 CF | A2 c2 (BG)A F | (A4 G2) F A | c3 f/ f/ ed c A |$ (F3 G) A2 F2 | 
C2 FA (AG B)A | F4 z2 Ac | B2 A2 G2 F2 | A2 B2 c3 c |$ d2 ef ed cB | (A4 G2) FA | c3 f ed cA | 
F3 F A3 F | C2 F2 AGB A | F4 || 
T:Gosford beach - Fone
T:Taken down from Saml. Fone by F.W.B. July 1893
M:4/4
L:1/8
K:C
CE | G2 FE c2 A2 | G2>E2 C2 E2 | G,2 C2 D2 E2 | F4 G/F/E/F/ E2  CE| GE cA G2 ED2< |
C2E G2  E2| G,2 E2EDFE |C6  C2| F2 E2 D2 C2 |G2 (3AG^F G2 CE |
GE c2 BAGF2< |F2G/F/ E2 CE |G>E c2 A2 F2| C2>E2 GFDD| G,2 E2>D2FE |C6 ||


